X:1
T:Spring Carol, 76.76 D
T:Spring Carol, 76.76 D
T:Grace Wilbur Conant, 1913
T:Public Domain Courtesy of the Cyber Hymnal™
C:Grace Wilbur Conant, 1913
Z:Public Domain
Z:Courtesy of the Cyber Hymnal™
%%score 1 ( 2 3 ) ( 4 5 )
L:1/8
Q:1/4=115
M:9/8
K:F
V:1 treble 
V:2 treble 
V:3 treble 
V:4 bass 
V:5 bass 
V:1
 A4 GF D2 F x | A3 A6 x2 | c4 =BA F2 A x | c6 z3 x4 | c4 BA ^FGc | d3 c3 FEF x2 | A6 D3 x2 | %7
 G6 z3 | A4 GF D2 F x | A3 A6 x5 | c4 =BA F2 A x | c6 z3 x4 | e4 dc fed x | c3 B3 DEF | A6 G3 x2 | %15
 F6 z3 |] %16
V:2
 A3- z AG F [B,D]2 F | A3 z A3 z [CF]2 z | c3- z c=B G [DF]2 A | c6 z [CE]2 z4 | c4 BA ^FGc | %5
 d3 z c3 z FEF | A6 z z [_B,D]2 z | G6 [B,^G]3 | A3- z AG F [B,D]2 F | A3 z A6 z [CF]2 z | %10
 c3- z c=B A [DF]2 A | c6 z [CE]2 z E2 z | e3- z [EBe][Fd] [Gc] fe[Fd] | [DFc]3 [DFB]3 D[DE][DF] | %14
 A6 [B,EG]3 x2 | [A,CF]6 z3 |] %16
V:3
 [A,C]2 [A,C]2 x6 | [A,C]2 [A,C]2 x7 | [CE]2 [CE]2 x6 | [CE]2 x11 | x6 E2 x | F2 F2 C2 x5 | %6
 =B,2 B,2 x7 | D3 C3 x3 | [A,C]2 [A,C]2 x6 | [A,C]2 [A,C]2 x10 | [CE]2 [CE]2 x6 | [CE]2 x11 | %12
 [EB]2 x [Fc]2 x5 | x9 | D3 ^D3 x5 | x9 |] %16
V:4
 [E,,C,]2 z [C,,C,]2 z [F,,D,]2 z x | F,,2 z F,2 z C,2 z x2 | [A,,E,]2 z [E,,E,]2 z [A,,F,]2 z x | %3
 [A,,E,]2 z A,2 z C2 z x4 | [B,C]2 z [B,C]2 z [C,B,]2 z | [C,A,]2 z C2 z A,G,F, x2 | %6
 [G,,F,]2 z D,,2 z [G,,F,]2 z x2 | F,3 E,3 D,3 | [F,,C,]2 z [C,,C,]2 z [F,,D,]2 z x | %9
 F,,2 z F,2 z C,2 z x5 | [A,,E,]2 z [E,,E,]2 z [A,,F,]2 z x | [A,,E,]2 z A,2 z C2 z x4 | %12
 G,,2 z C[B,D][B,E] [A,C]2 [A,,F,] x | [G,,G,]2 z B,2 z [G,B,][G,B,][G,B,] | B,6 z z C,3 | %15
 [F,,C,]6 z3 |] %16
V:5
 x10 | x11 | x10 | x13 | x9 | x6 D,2 x3 | x11 | C,,6 x3 | x10 | x14 | x10 | x13 | x10 | x9 | %14
 C,2 C,,2 x7 | x9 |] %16

